icons/octoface-16.svg

<svg width="16" height="16" viewBox="0 0 16 16" fill="none" xmlns="http://www.w3.org/2000/svg">
<path d="M5 7C4.44772 7 4 7.44772 4 8V9C4 9.55228 4.44772 10 5 10C5.55228 10 6 9.55229 6 9V8C6 7.44772 5.55228 7 5 7Z" fill="black"/>
<path d="M10 10C10 11 9 12 8 12C7 12 6 11 6 10H10Z" fill="black"/>
<path d="M11 7C10.4477 7 10 7.44772 10 8V9C10 9.55228 10.4477 10 11 10C11.5523 10 12 9.55229 12 9V8C12 7.44772 11.5523 7 11 7Z" fill="black"/>
<path fill-rule="evenodd" clip-rule="evenodd" d="M1.32591 1.97256C1.5056 1.33895 2.16113 0.952464 2.81557 1.141C3.20275 1.25254 3.79321 1.44762 4.39056 1.74345C4.97716 2.03396 5.6339 2.45231 6.09131 3.03872C6.11298 3.06651 6.13329 3.09468 6.15229 3.12317C6.72101 3.04286 7.33601 3 8 3C8.66919 3 9.28861 3.03732 9.86106 3.10848C9.87716 3.08499 9.89417 3.06172 9.91211 3.03872C10.3695 2.45231 11.0263 2.03396 11.6129 1.74345C12.2102 1.44762 12.8007 1.25254 13.1878 1.141C13.8423 0.952464 14.4978 1.33895 14.6775 1.97256C14.8174 2.46574 15.0342 3.32046 15.1568 4.26277C15.2355 4.86721 15.2804 5.54339 15.2262 6.19887C15.7684 7.17564 16 8.30886 16 9.5C16 13 14.5 15 8 15C1.5 15 0 13 0 9.5C0 8.46573 0.237716 7.37203 0.795102 6.3828C0.714864 5.67094 0.760586 4.92394 0.846601 4.26277C0.969189 3.32046 1.18605 2.46574 1.32591 1.97256ZM14.0001 8.79589C14.5001 11.0651 14.0001 13.0651 8.00008 13.0651C2.00008 13.0651 1.50009 11.0651 2.00008 8.79589C2.63733 5.90373 4.75008 5 8.00008 5C11.2501 5 13.3628 5.90373 14.0001 8.79589Z" fill="black"/>
</svg>

<svg xmlns="http://www.w3.org/2000/svg" width="16" height="16" viewBox="0 0 16 16"><path d="M5 7a1 1 0 00-1 1v1a1 1 0 002 0V8a1 1 0 00-1-1zm5 3c0 1-1 2-2 2s-2-1-2-2h4zm1-3a1 1 0 00-1 1v1a1 1 0 102 0V8a1 1 0 00-1-1z"/><path fill-rule="evenodd" d="M1.326 1.973a1.2 1.2 0 011.49-.832c.387.112.977.307 1.575.602.586.291 1.243.71 1.7 1.296.022.028.042.056.061.084C6.721 3.043 7.336 3 8 3c.67 0 1.289.037 1.861.108l.051-.07c.457-.586 1.114-1.004 1.7-1.295a9.654 9.654 0 011.576-.602 1.2 1.2 0 011.49.832c.14.493.356 1.347.479 2.29.079.604.123 1.28.07 1.936.541.977.773 2.11.773 3.301C16 13 14.5 15 8 15s-8-2-8-5.5c0-1.034.238-2.128.795-3.117-.08-.712-.034-1.46.052-2.12.122-.943.34-1.797.479-2.29zM14 8.796c.5 2.27 0 4.27-6 4.27s-6.5-2-6-4.27C2.637 5.904 4.75 5 8 5s5.363.904 6 3.796z"/></svg>
